X:1
T:In Natali Domini, 77.77.77.7
T:In Natali Domini, 77.77.77.7
T:Friedrich Layriz (1808-1859)
T:Public Domain Courtesy of the Cyber Hymnal™
C:Friedrich Layriz (1808-1859)
Z:Public Domain
Z:Courtesy of the Cyber Hymnal™
%%score ( 1 2 ) ( 3 4 )
L:1/8
Q:1/4=145
M:3/4
K:F
V:1 treble 
V:2 treble 
V:3 bass 
V:4 bass 
V:1
 [DG]4 [DB]2 | [_EA]4 [CG]2 | [D^F]4 G2 | [^FA]6 | [DA]4 [DB]2 | [Fc]4 [Fd]2 | B2 z2 x6 | [B,G]6 | %8
 [FA]4 [FB]2 | [Ec]4 [DB]2 | [FA]4 [EG]2 | F6 | [Ec]4 [Gd]2 | [Af]4 [Ge]2 | d4 z2 ^E2 | [Fd]6 | %16
 [Fd]4 [Fd]2 | [Fc]4 [FB]2 | [FA]4 [EG]2 | [FA]6 | [Fd]4 [Fd]2 | [Fc]4 [FB]2 | [FA]4 [EG]2 | %23
 [FA]6 | [FA]4 [FB]2 | [Ec]4 [EG]2 | B2 z2 x6 | [B,G]6 |] %28
V:2
 x6 | x6 | x4 (DE) | x6 | x6 | x6 | D4 (A4 D2) | x6 | x6 | x6 | x6 | F6 | x6 | x6 | F2 ^E4 x2 | %15
 x6 | x6 | x6 | x6 | x6 | x6 | x6 | x6 | x6 | x6 | x6 | D4 (A4 D2) | x6 |] %28
V:3
 [G,B,]4 [G,B,]2 | [C,C]4 [_E,G,]2 | [D,A,]4 [G,B,]2 | [D,A,]6 | [D,^F,]4 G,2 | [F,A,]4 [D,A,]2 | %6
 G,4 z2 ^F,2 x2 | [G,,G,]6 | [F,C]4 [D,F,]2 | [C,G,]4 [G,B,]2 | [F,C]4 [C,C]2 | [F,A,]6 | %12
 A,4 [G,=B,]2 | [F,C]4 [C,C]2 | A,4 z2 A,2 | [D,A,]6 | [B,,B,]4 [B,,B,]2 | [F,,A,]4 [B,,D]2 | %18
 [F,C]4 [G,B,]2 | [F,C]6 | [B,,B,]4 [B,,B,]2 | [F,,A,]4 [B,,D]2 | [F,C]4 [G,B,]2 | [F,C]6 | %24
 [F,C]4 [D,F,]2 | [C,G,]4 [C,G,]2 | G,4 z2 ^F,2 x2 | [G,,G,]6 |] %28
V:4
 x6 | x6 | x6 | x6 | x4 G,2 | x6 | G,2 D,4 x4 | x6 | x6 | x6 | x6 | x6 | A,4 x2 | x6 | %14
 D,2 A,,4 x2 | x6 | x6 | x6 | x6 | x6 | x6 | x6 | x6 | x6 | x6 | x6 | G,,2 D,4 x4 | x6 |] %28

